!!!COM: Bach, Johann Sebastian
!!!CDT: 1685/3//-1750/7/28/
!!!OTL@@DE: O Traurigkeit
!!!AGN: 4-Part Chorale
!!!SCT: BH 57
!!!SCT: BWV 404
**harm	**root	**kern	**kern	**kern	**kern
!	!	!bass	!tenor	!alto	!soprno
*	*Iorgan	*Iorgan	*Iorgan	*Iorgan	*Iorgan
*	*	*clefF4	*clefF4	*clefG2	*clefG2
*k[f#c#]	*k[f#c#]	*k[f#c#]	*k[f#c#]	*k[f#c#]	*k[f#c#]
*b:	*b:	*b:	*b:	*b:	*b:
*M4/4	*M4/4	*M4/4	*M4/4	*M4/4	*M4/4
*met(c)	*met(c)	*met(c)	*met(c)	*met(c)	*met(c)
*MM60	*MM60	*MM60	*MM60	*MM60	*MM60
V	4EE	4F#	4c#	4a#	4ff#
=1	=1	=1	=1	=1	=1
i	4AA	4B	8B	4f#	8dd
.	.	.	8A#	.	8cc#
viio7c/V	4DD#	4BB	4G#	8f#	4dd
.	.	.	.	8e#	.
V	4EE	4F#;	4A#;	4f#;	4cc#;
Vd	4EE	4E	4c#	4f#	4a#
=2	=2	=2	=2	=2	=2
ib	4AA	4D	4d	4f#	4b
iv	4DD	4G	8c#	4e	4b
.	.	.	8B	.	.
V;	4EE;	4F#;	4c#;	4f#;	4a#;
V	4EE	4F#	4c#	4a#	4ff#
=3	=3	=3	=3	=3	=3
i	4AA	4B	4d	4b	4ff#
Vb	4EE	4A#	4c#	4cc#	4ff#
VI	4FF	8B	8d	4b	4gg
.	.	8c#	8e	.	.
III	4CC	4d	8f#	4a	8ff#
.	.	.	8d	.	8ee
=4	=4	=4	=4	=4	=4
V7b/-VII	4DD	4G#	4d	4b	2ee
-VII	4GG	4A	4c#	8a	.
.	.	.	.	8g	.
III;	2CC;	2D;	2d;	2f#;	2dd;
!!linebreak: 2
=5	=5	=5	=5	=5	=5
-VII	4GG	4AA	4e	4a	4cc#
VIb	4FF	4BB	4d	8g	4dd
.	.	.	.	8f#	.
-VIIb	4GG	4C#	4a	8e	4ee
.	.	.	.	8ee	.
III	4CC	4D	8A	4dd	4ff#
.	.	.	8B	.	.
=6	=6	=6	=6	=6	=6
V7b	4EE	4A#	8c#	4cc#	4ee
.	.	.	8F#	.	.
i	4AA	4B	4f#	4b	4dd
V;	2EE;	2F#;	2f#;	2a#;	2cc#;
=7	=7	=7	=7	=7	=7
#viD7	4FF#	4G#	8f#	4f#	4b
.	.	.	[8e	.	.
V7b	4EE	4A#	8e]	4f#	4cc#
.	.	.	[8d	.	.
ib	4AA	8B	8d]	4f#	4dd
.	.	8A	8c#	.	.
ivb	4DD	8G	4B	8b	8ee
.	.	8F#	.	8a	8ff#
=8	=8	=8	=8	=8	=8
iv	4DD	4E	4B	4g	2cc#
V7	4EE	4F#	4A#	8f#	.
.	.	.	.	8e	.
i;	2AA;	2BB;	2F#;	2d;	2b;
==	==	==	==	==	==
*-	*-	*-	*-	*-	*-
!!chor2scor: -l 2 -s 0.6 -o %b.pmx
!!!YEC: Copyright 2003 by Craig Stuart Sapp
!!!license: GNU General Public License (http://www.gnu.org/copyleft/gpl.html)
!!!SMA: 371 Bach Chorales, edited by Ludwig Erk, C.F. Peters
!!!PDT: 1850, 1865
!!!ONB: Harmony and Root analysis done manually by Craig Sapp
